svg/device/battery_3_fill.svg

<?xml version="1.0" encoding="UTF-8"?>
<svg width="24px" height="24px" viewBox="0 0 24 24" version="1.1" xmlns="http://www.w3.org/2000/svg" xmlns:xlink="http://www.w3.org/1999/xlink">
    <title>battery_3_fill</title>
    <g id="Icon" stroke="none" stroke-width="1" fill="none" fill-rule="evenodd">
        <g id="Device" transform="translate(-624.000000, -336.000000)">
            <g id="battery_3_fill" transform="translate(624.000000, 336.000000)">
                <path d="M24,0 L24,24 L0,24 L0,0 L24,0 Z M12.5935,23.2578 L12.5819,23.2595 L12.5109,23.295 L12.4919,23.2987 L12.4767,23.295 L12.4057,23.2595 C12.3958,23.2564 12.387,23.259 12.3821,23.2649 L12.378,23.2758 L12.3609,23.7031 L12.3659,23.7235 L12.3769,23.7357 L12.4805,23.8097 L12.4953,23.8136 L12.5071,23.8097 L12.6107,23.7357 L12.6233,23.7197 L12.6267,23.7031 L12.6096,23.2758 C12.6076,23.2657 12.601,23.2593 12.5935,23.2578 Z M12.8584,23.1453 L12.8445,23.1473 L12.6598,23.2397 L12.6499,23.2499 L12.6472,23.2611 L12.6651,23.6906 L12.6699,23.7034 L12.6784,23.7105 L12.8793,23.8032 C12.8914,23.8069 12.9022,23.803 12.9078,23.7952 L12.9118,23.7812 L12.8777,23.1665 C12.8753,23.1546 12.8674,23.147 12.8584,23.1453 Z M12.143,23.1473 C12.1332,23.1424 12.1222,23.1453 12.1156,23.1526 L12.1099,23.1665 L12.0758,23.7812 C12.0751,23.7927 12.0828,23.8019 12.0926,23.8046 L12.1083,23.8032 L12.3092,23.7105 L12.3186,23.7024 L12.3225,23.6906 L12.3404,23.2611 L12.3372,23.2485 L12.3278,23.2397 L12.143,23.1473 Z" id="MingCute" fill-rule="nonzero"></path>
                <path d="M18,6 C19.1046,6 20,6.89543 20,8 L20,9 C21.1046,9 22,9.89543 22,11 L22,13 C22,14.1046 21.1046,15 20,15 L20,16 C20,17.1046 19.1046,18 18,18 L4,18 C2.89543,18 2,17.1046 2,16 L2,8 C2,6.89543 2.89543,6 4,6 L18,6 Z M6,9 C5.44772,9 5,9.44772 5,10 L5,14 C5,14.5523 5.44772,15 6,15 C6.55228,15 7,14.5523 7,14 L7,10 C7,9.44772 6.55228,9 6,9 Z M9,9 C8.48716857,9 8.06449347,9.38604429 8.0067278,9.88337975 L8,10 L8,14 C8,14.5523 8.44772,15 9,15 C9.51283143,15 9.93550653,14.613973 9.9932722,14.1166239 L10,14 L10,10 C10,9.44772 9.55228,9 9,9 Z M12,9 C11.4477,9 11,9.44772 11,10 L11,14 C11,14.5523 11.4477,15 12,15 C12.5523,15 13,14.5523 13,14 L13,10 C13,9.44772 12.5523,9 12,9 Z" id="形状" fill="#09244B"></path>
            </g>
        </g>
    </g>
</svg>

<svg xmlns="http://www.w3.org/2000/svg" width="24" height="24"><g fill="none" fill-rule="evenodd"><path d="M24 0v24H0V0h24ZM12.594 23.258l-.012.002-.071.035-.02.004-.014-.004-.071-.036c-.01-.003-.019 0-.024.006l-.004.01-.017.428.005.02.01.013.104.074.015.004.012-.004.104-.074.012-.016.004-.017-.017-.427c-.002-.01-.009-.017-.016-.018Zm.264-.113-.014.002-.184.093-.01.01-.003.011.018.43.005.012.008.008.201.092c.012.004.023 0 .029-.008l.004-.014-.034-.614c-.003-.012-.01-.02-.02-.022Zm-.715.002a.023.023 0 0 0-.027.006l-.006.014-.034.614c0 .012.007.02.017.024l.015-.002.201-.093.01-.008.003-.011.018-.43-.003-.012-.01-.01-.184-.092Z"/><path fill="#09244B" d="M18 6a2 2 0 0 1 2 2v1a2 2 0 0 1 2 2v2a2 2 0 0 1-2 2v1a2 2 0 0 1-2 2H4a2 2 0 0 1-2-2V8a2 2 0 0 1 2-2h14ZM6 9a1 1 0 0 0-1 1v4a1 1 0 1 0 2 0v-4a1 1 0 0 0-1-1Zm3 0a1 1 0 0 0-.993.883L8 10v4a1 1 0 0 0 1.993.117L10 14v-4a1 1 0 0 0-1-1Zm3 0a1 1 0 0 0-1 1v4a1 1 0 1 0 2 0v-4a1 1 0 0 0-1-1Z"/></g></svg>
